X:1
T:Title
%%score 1 { 2 | 3 }
L:1/8
Q:1/4=95
M:4/4
K:G
V:1 treble nm="Grand Piano, Soprano"
V:2 bass nm="Choir Pad, Graz, Ira D. Sankey, 1902"
V:3 bass 
V:1
 [B,B]2 [CG]>[CA] [DB]2 [B,D]>[B,^D] | [CE]2 [EG]>[^DA] [=DB]4 | [Gd]2 [G^c]>[Gd] [GB]2 [DA][DG] | %3
w: By~Ira~David~Sankey,~1902 * * * * *|||
 [DG]2 [^CF]>[CG] [DA]2 [=C_B]2 | [B,B]2 [CG]>[CA] [DB]2 [B,D]>[B,^D] | [CE]2 [EG]>[^DA] [=DB]4 | %6
w: |||
 [Cc]2 [DB][FA] [Gd][GB]G[GA] | [GB]2 [EG]>[FA] G4 | [FA]2 [DF]>[EG] [FA] [Fd]2 [Fd] | %9
w: |||
 [E^c]2 [DB]>[Ec] [Fd]4 | [FA]2 [DF]>[EG] [FA] [Fd]2 [Fd] | [E^c]2 [Fd]>[Ge] [Fd]2 [A=c]2 | %12
w: |||
 [GB]2 [EG]>[^DA] [=DB]2 [B,D]>[B,^D] | [CE]2 [EG]>[^DA] [=DB]4 | [Cc]2 [DB][FA] [Gd][GB]G[GA] | %15
w: |||
 [GB]2 [EG]>[FA] G4- | G4 z4 |] %17
w: ||
V:2
 D,2 E,>^D, =D,2 G,>G, | G,2 G,>G, G,4 | B,2 _B,>=B, D2 B,B, | B,2 A,>G, F,4 | %4
 G,2 E,>^D, =D,2 G,>G, | G,2 G,>G, G,4 | G,2 G,[K:treble]D DDB,E | D2[K:bass] B,>C B,4 | %8
 D2 A,>A, D A,2 A, | A,2 A,>A, A,4 | D2 A,>A, D A,2 A, | A,2 A,>A, A,2[K:treble] D2 | %12
 D2 C>C B,2[K:bass] G,>G, | G,2 G,>G, G,2 =F,2 | G,2 G,[K:treble]D DDB,E | D2 B,>C B,4- | B,4 z4 |] %17
V:3
 G,,2 G,,>G,, G,,2 G,,>G,, | C,2 C,>C, G,,4 | G,2 G,>G, G,2 G,G, | E,2 A,,>A,, D,4 | %4
 G,,2 G,,>G,, G,,2 G,,>G,, | C,2 C,>C, z4 | E,2 D,C, B,,G,,E,C, | D,2 D,>D, G,4 | %8
 D,2 D,>D, D, D,2 D, | A,,2 A,,>A,, D,4 | D,2 D,>D, D, D,2 D, | A,,2 A,,>A,, D,2 F,2 | %12
 G,2 G,>G, G,2 G,,>G,, | C,2 C,>C, z4 | E,2 D,C, B,,G,,E,C, | D,2 D,>D, G,,4- | G,,4 z4 |] %17

